icons/smiley-frustrated-16.svg

<svg width="16" height="16" viewBox="0 0 16 16" fill="none" xmlns="http://www.w3.org/2000/svg">
<g clip-path="url(#clip0_55_816)">
<path d="M8 0C10.1217 0 12.1569 0.842494 13.6572 2.34277C15.1574 3.84306 16 5.87827 16 8C16 10.1217 15.1574 12.1569 13.6572 13.6572C12.1569 15.1574 10.1217 16 8 16C5.87827 16 3.84306 15.1574 2.34277 13.6572C0.842494 12.1569 0 10.1217 0 8C0 5.87827 0.842478 3.84306 2.34277 2.34277C3.84306 0.842478 5.87827 0 8 0ZM8 1.5C6.27609 1.5 4.62328 2.18531 3.4043 3.4043C2.18531 4.62328 1.5 6.27609 1.5 8C1.5 9.72391 2.18531 11.3777 3.4043 12.5967C4.62323 13.8154 6.27632 14.5 8 14.5C9.72391 14.5 11.3777 13.8157 12.5967 12.5967C13.8157 11.3777 14.5 9.72391 14.5 8C14.5 6.27632 13.8154 4.62323 12.5967 3.4043C11.3777 2.18531 9.72391 1.5 8 1.5ZM8 8.25C10.487 8.25 11.518 10.23 11.7275 11.0684C11.7835 11.2923 11.7329 11.5299 11.5908 11.7119C11.4487 11.8937 11.2308 12 11 12H5C4.76921 12 4.55132 11.8937 4.40918 11.7119C4.2671 11.5299 4.21654 11.2923 4.27246 11.0684C4.48205 10.23 5.51301 8.25 8 8.25ZM8 9.75C7.17844 9.75 6.6166 10.1009 6.25391 10.5H9.74609C9.3834 10.1009 8.82156 9.75 8 9.75ZM3.89648 4.75879C4.02981 4.42571 4.40804 4.26345 4.74121 4.39648L7.00879 5.30371C7.6374 5.55516 7.6374 6.44484 7.00879 6.69629L4.74121 7.60352C4.40801 7.73668 4.02985 7.57433 3.89648 7.24121C3.76352 6.90822 3.92509 6.53 4.25781 6.39648L5.25 6L4.25781 5.60352C3.92507 5.46999 3.76348 5.09179 3.89648 4.75879ZM11.2588 4.39648C11.5919 4.26345 11.9701 4.42584 12.1035 4.75879C12.2364 5.09197 12.0743 5.47026 11.7412 5.60352L10.75 6L11.7412 6.39648C12.0743 6.52985 12.2367 6.90801 12.1035 7.24121C11.9703 7.57435 11.592 7.73645 11.2588 7.60352L8.99023 6.69629C8.36222 6.44465 8.36223 5.55535 8.99023 5.30371L11.2588 4.39648Z" fill="black"/>
</g>
<defs>
<clipPath id="clip0_55_816">
<rect width="16" height="16" fill="white"/>
</clipPath>
</defs>
</svg>

<svg xmlns="http://www.w3.org/2000/svg" width="16" height="16" viewBox="0 0 16 16"><path d="M8 0a7.996 7.996 0 0 1 8 8 8 8 0 1 1-8-8Zm0 1.5a6.5 6.5 0 1 0 0 13 6.5 6.5 0 0 0 0-13Zm0 6.75c2.487 0 3.518 1.98 3.727 2.818A.751.751 0 0 1 11 12H5a.75.75 0 0 1-.728-.932C4.482 10.23 5.513 8.25 8 8.25Zm3.259-3.854a.651.651 0 0 1 .482 1.208L10.75 6l.991.396a.651.651 0 0 1-.482 1.208L8.99 6.696a.75.75 0 0 1 0-1.392Zm-7.363.363a.651.651 0 0 1 .845-.363l2.268.908a.75.75 0 0 1 0 1.392l-2.268.908a.651.651 0 0 1-.483-1.208L5.25 6l-.992-.396a.65.65 0 0 1-.362-.845ZM8 9.75c-.822 0-1.383.351-1.746.75h3.492c-.363-.399-.924-.75-1.746-.75Z"/></svg>
